images/icons/benefits-professional.svg

<svg width="64" height="57" viewBox="0 0 64 57" fill="none" xmlns="http://www.w3.org/2000/svg">
<path d="M23 0C21.9062 0 21 0.90625 21 2V2.47266C14.8359 3.84766 10.1992 9.17188 10.0547 15.7031C8.88672 16.4023 8 17.543 8 19V22H10V25.5469H10.0039C10.0117 26.1133 10.1719 26.5586 10.3008 27C10.3672 27.2305 10.4336 27.4414 10.4727 27.5977C10.5156 27.7539 10.5195 27.9102 10.5195 27.75C10.5195 29.0039 11.5859 30 12.8242 30H13.0938C13.25 33.168 14.7305 35.9766 17 37.875V41.168C15.5625 41.5078 12.3633 42.3398 9.125 43.6367C6.95312 44.5078 4.75781 45.5859 3.04297 46.9258C1.32422 48.2656 0 49.9492 0 52V57H48V52C48 50.8945 47.6055 49.8984 46.9805 49H64V45.1992C64 43.4414 62.9102 41.9766 61.5156 40.7734C60.1211 39.5703 58.3477 38.5703 56.5898 37.7383C53.4023 36.2383 50.5664 35.4102 50 35.25V34.0156C52.2188 32.4922 53.6914 29.9805 53.8906 27.1133H54.0273C55.1289 27.1133 56.0781 26.2266 56.0781 25.1055C56.0781 25.2852 56.0781 25.1562 56.1094 25.0312C56.1445 24.9102 56.1953 24.7422 56.25 24.5586C56.3398 24.2578 56.4297 23.9336 56.4688 23.5469H57V20H59V17C59 15.5195 58.1758 14.1797 56.8945 13.4883C56.2812 8.61328 52.7422 4.60547 48 3.38672V3C48 1.89844 47.1016 1 46 1H44C42.8984 1 42 1.89844 42 3V3.39062C40.3242 3.82031 38.8008 4.60547 37.5 5.64844C37.9062 6.17969 38.2891 6.73047 38.6289 7.30469C39.6367 6.47266 40.8164 5.83594 42.1055 5.44531C42.2734 5.78516 42.6211 6 43 6C43.543 6 43.9883 5.56641 44 5.02344V3H46V5.02344C46.0156 5.56641 46.457 6 47 6C47.3789 6 47.7266 5.78125 47.8945 5.44141C51.4141 6.50391 54.0625 9.42578 54.7852 13.0234C54.3281 13.125 54 13.5312 54 14C54 14.5508 54.4492 15 55 15C55.0742 15 55.1484 14.9922 55.2188 14.9727L55.6367 15.1172C56.4531 15.3945 57 16.1484 57 17V18H43V20H52V23.8906L53.3359 23.1836C53.3594 23.1719 53.3828 23.1602 53.4102 23.1562C53.4961 23.1406 53.6289 23.125 53.7617 23.1133C53.8906 23.1016 54.0195 23.0898 54.1172 23.082C54.168 23.082 54.207 23.0781 54.2344 23.0781H54.2383C54.4141 23.0781 54.5 23.1797 54.5 23.2852C54.5 23.2422 54.4336 23.6484 54.332 23.9922C54.2812 24.1641 54.2266 24.3398 54.1836 24.5117C54.1367 24.6797 54.0781 24.7852 54.0781 25.1055C54.0781 25.1016 54.0898 25.1133 54.0273 25.1133H52V26.5C52 30.0039 49.5586 32.8672 46.25 33.457L45.9688 33.5078L45.7539 33.7031C45.543 33.8906 45.2891 34 45 34C44.7109 34 44.457 33.8906 44.2461 33.7031L44.0312 33.5078L43.75 33.457C43.1758 33.3555 42.5742 33.2539 42 33.1562V33H40V36.9492L40.1055 37.1602C40.1055 37.1602 41.6094 40 45 40C48.1562 40 49.6172 37.625 49.8125 37.2852C50.7227 37.5547 53.0117 38.2656 55.7344 39.5469C57.3945 40.332 59.043 41.2812 60.2109 42.2891C61.3789 43.2969 62 44.2969 62 45.1992V47H45.0469C45.0195 46.9766 44.9883 46.9492 44.957 46.9258C43.2422 45.5859 41.0469 44.5078 38.875 43.6367C35.6367 42.3398 32.4375 41.5078 31 41.168V37.875C33.2695 35.9766 34.75 33.168 34.9062 30H35.1758C36.4141 30 37.4805 29.0039 37.4805 27.75C37.4805 27.9102 37.4844 27.7539 37.5273 27.5977C37.5664 27.4414 37.6328 27.2305 37.6992 27C37.8281 26.5586 37.9883 26.1133 37.9961 25.5469H38V22H40V19C40 17.5469 39.1133 16.4023 37.9492 15.707C37.8047 9.17188 33.1641 3.84766 27 2.47266V2C27 0.90625 26.0938 0 25 0H23ZM23 2H25V4.02734C25.0156 4.56641 25.457 5 26 5C26.4062 5 26.7734 4.75391 26.9258 4.375C31.8281 5.60156 35.5273 9.82422 35.9531 15C35.4219 15.0273 35 15.4648 35 16C35 16.5508 35.4492 17 36 17C36.0742 17 36.1523 16.9922 36.2227 16.9727L36.6523 17.1211C37.4375 17.3945 38 18.1172 38 19V20H10V19C10 18.1211 10.5625 17.3984 11.3477 17.125L11.7734 16.9727C11.8477 16.9922 11.9219 17 12 17C12.5508 17 13 16.5508 13 16C13 15.4648 12.5781 15.0273 12.0469 15C12.4727 9.82422 16.1719 5.60547 21.0742 4.375C21.2266 4.75391 21.5938 5 22 5C22.543 5 22.9844 4.56641 23 4.02734V2ZM22 7C21.4492 7 21 7.44922 21 8C21 8.55078 21.4492 9 22 9C22.5508 9 23 8.55078 23 8C23 7.44922 22.5508 7 22 7ZM26 7C25.4492 7 25 7.44922 25 8C25 8.55078 25.4492 9 26 9C26.5508 9 27 8.55078 27 8C27 7.44922 26.5508 7 26 7ZM43 8C42.4492 8 42 8.44922 42 9C42 9.55078 42.4492 10 43 10C43.5508 10 44 9.55078 44 9C44 8.44922 43.5508 8 43 8ZM47 8C46.4492 8 46 8.44922 46 9C46 9.55078 46.4492 10 47 10C47.5508 10 48 9.55078 48 9C48 8.44922 47.5508 8 47 8ZM22 11C21.4492 11 21 11.4492 21 12C21 12.5508 21.4492 13 22 13C22.5508 13 23 12.5508 23 12C23 11.4492 22.5508 11 22 11ZM26 11C25.4492 11 25 11.4492 25 12C25 12.5508 25.4492 13 26 13C26.5508 13 27 12.5508 27 12C27 11.4492 26.5508 11 26 11ZM51 13C50.4492 13 50 13.4492 50 14C50 14.5508 50.4492 15 51 15C51.5508 15 52 14.5508 52 14C52 13.4492 51.5508 13 51 13ZM16 15C15.4492 15 15 15.4492 15 16C15 16.5508 15.4492 17 16 17C16.5508 17 17 16.5508 17 16C17 15.4492 16.5508 15 16 15ZM32 15C31.4492 15 31 15.4492 31 16C31 16.5508 31.4492 17 32 17C32.5508 17 33 16.5508 33 16C33 15.4492 32.5508 15 32 15ZM54 20H55V21.2188C54.7578 21.1289 54.5039 21.0781 54.2383 21.0781C54.1289 21.0781 54.1602 21.0781 54.1211 21.0781C54.0898 21.082 54.0469 21.0859 54 21.0898V20ZM12 22H13V23.0312C12.9531 23.0273 12.8984 23.0195 12.8594 23.0156C12.793 23.0117 12.7383 23.0078 12.6953 23.0039C12.6523 23.0039 12.6758 23 12.5625 23C12.3711 23 12.1836 23.0273 12 23.0664V22ZM15 22H33V25.8438L34.3438 25.1406C34.3633 25.1289 34.4141 25.1094 34.4648 25.0977C34.5703 25.082 34.7227 25.0625 34.875 25.0469C35.0273 25.0352 35.1758 25.0195 35.293 25.0117C35.3477 25.0078 35.3945 25.0039 35.4258 25C35.4609 25 35.5352 25 35.4375 25C35.7812 25 36 25.2344 36 25.5C36 25.5156 35.9062 26.0078 35.7812 26.4375C35.7148 26.6562 35.6523 26.8711 35.5938 27.0742C35.5391 27.2773 35.4805 27.4141 35.4805 27.75C35.4805 27.875 35.3789 28 35.1758 28H33V29.4727C33 33.9102 29.8008 37.5742 25.5898 38.3242L25.3047 38.375L25.0938 38.5703C24.793 38.8398 24.4219 39 24 39C23.5781 39 23.207 38.8398 22.9062 38.5703L22.6953 38.375L22.4102 38.3242C18.1992 37.5742 15 33.9141 15 29.4727V28H12.8242C12.6211 28 12.5195 27.875 12.5195 27.75C12.5195 27.4141 12.4609 27.2773 12.4062 27.0742C12.3477 26.8711 12.2852 26.6562 12.2188 26.4375C12.0938 26.0078 12 25.5156 12 25.5C12 25.2344 12.2188 25 12.5625 25C12.4648 25 12.5391 25 12.5703 25C12.6016 25.0039 12.6523 25.0078 12.707 25.0117C12.8242 25.0195 12.9727 25.0352 13.125 25.0469C13.2773 25.0625 13.4297 25.082 13.5352 25.0977C13.5898 25.1094 13.6523 25.1367 13.668 25.1406L15 25.8438V22ZM35 22H36V23.0664C35.8164 23.0273 35.6289 23 35.4375 23C35.3242 23 35.3477 23.0039 35.3047 23.0039C35.2617 23.0078 35.207 23.0117 35.1406 23.0156C35.1016 23.0195 35.043 23.0273 35 23.0312V22ZM48.5 22C47.6719 22 47 22.6719 47 23.5C47 24.3281 47.6719 25 48.5 25C49.3281 25 50 24.3281 50 23.5C50 22.6719 49.3281 22 48.5 22ZM19.5 25C18.6719 25 18 25.6719 18 26.5C18 27.3281 18.6719 28 19.5 28C20.3281 28 21 27.3281 21 26.5C21 25.6719 20.3281 25 19.5 25ZM28.5 25C27.6719 25 27 25.6719 27 26.5C27 27.3281 27.6719 28 28.5 28C29.3281 28 30 27.3281 30 26.5C30 25.6719 29.3281 25 28.5 25ZM48 35.0391V36.4023C47.8828 36.6328 47.1445 38 45 38C42.8555 38 42.1172 36.6328 42 36.4023V35.1875C42.4766 35.2656 42.7305 35.3086 43.1719 35.3867C43.6836 35.7578 44.3125 36 45 36C45.6992 36 46.3359 35.7539 46.8516 35.3711C47.2461 35.2852 47.6289 35.1719 48 35.0391ZM19 39.1992C19.8711 39.6484 20.8047 39.9922 21.7969 40.1953C22.4062 40.6719 23.1562 41 24 41C24.8438 41 25.5938 40.6719 26.2031 40.1953C27.1953 39.9922 28.1289 39.6484 29 39.1992V42.6562C28.8789 42.8984 27.5781 45.4023 24 45.4023C20.4219 45.4023 19.1211 42.8984 19 42.6562V39.1992ZM45 43C44.4492 43 44 43.4492 44 44C44 44.5508 44.4492 45 45 45C45.5508 45 46 44.5508 46 44C46 43.4492 45.5508 43 45 43ZM49 43C48.4492 43 48 43.4492 48 44C48 44.5508 48.4492 45 49 45C49.5508 45 50 44.5508 50 44C50 43.4492 49.5508 43 49 43ZM53 43C52.4492 43 52 43.4492 52 44C52 44.5508 52.4492 45 53 45C53.5508 45 54 44.5508 54 44C54 43.4492 53.5508 43 53 43ZM57 43C56.4492 43 56 43.4492 56 44C56 44.5508 56.4492 45 57 45C57.5508 45 58 44.5508 58 44C58 43.4492 57.5508 43 57 43ZM17.0117 43.2266L17.1055 43.418C17.1055 43.418 19.1797 47.4023 24 47.4023C28.8203 47.4023 30.8945 43.418 30.8945 43.418L30.9883 43.2266C32.5078 43.6016 35.2773 44.3477 38.125 45.4922C40.2031 46.3242 42.2578 47.3555 43.7305 48.5C45.1992 49.6484 46 50.8281 46 52V55H2V52C2 50.8281 2.80078 49.6484 4.26953 48.5C5.74219 47.3555 7.79688 46.3242 9.875 45.4922C12.7227 44.3477 15.4922 43.6016 17.0117 43.2266ZM6 51C5.44922 51 5 51.4492 5 52C5 52.5508 5.44922 53 6 53C6.55078 53 7 52.5508 7 52C7 51.4492 6.55078 51 6 51ZM10 51C9.44922 51 9 51.4492 9 52C9 52.5508 9.44922 53 10 53C10.5508 53 11 52.5508 11 52C11 51.4492 10.5508 51 10 51ZM14 51C13.4492 51 13 51.4492 13 52C13 52.5508 13.4492 53 14 53C14.5508 53 15 52.5508 15 52C15 51.4492 14.5508 51 14 51ZM18 51C17.4492 51 17 51.4492 17 52C17 52.5508 17.4492 53 18 53C18.5508 53 19 52.5508 19 52C19 51.4492 18.5508 51 18 51ZM22 51C21.4492 51 21 51.4492 21 52C21 52.5508 21.4492 53 22 53C22.5508 53 23 52.5508 23 52C23 51.4492 22.5508 51 22 51ZM26 51C25.4492 51 25 51.4492 25 52C25 52.5508 25.4492 53 26 53C26.5508 53 27 52.5508 27 52C27 51.4492 26.5508 51 26 51ZM30 51C29.4492 51 29 51.4492 29 52C29 52.5508 29.4492 53 30 53C30.5508 53 31 52.5508 31 52C31 51.4492 30.5508 51 30 51ZM34 51C33.4492 51 33 51.4492 33 52C33 52.5508 33.4492 53 34 53C34.5508 53 35 52.5508 35 52C35 51.4492 34.5508 51 34 51ZM38 51C37.4492 51 37 51.4492 37 52C37 52.5508 37.4492 53 38 53C38.5508 53 39 52.5508 39 52C39 51.4492 38.5508 51 38 51ZM42 51C41.4492 51 41 51.4492 41 52C41 52.5508 41.4492 53 42 53C42.5508 53 43 52.5508 43 52C43 51.4492 42.5508 51 42 51Z" fill="#E4B564"/>
</svg>

<svg width="64" height="57" fill="none" xmlns="http://www.w3.org/2000/svg"><path d="M23 0c-1.094 0-2 .906-2 2v.473c-6.164 1.375-10.8 6.699-10.945 13.23C8.887 16.403 8 17.543 8 19v3h2v3.547h.004c.008.566.168 1.012.297 1.453.066.23.133.441.172.598.043.156.046.312.046.152 0 1.254 1.067 2.25 2.305 2.25h.27A10.94 10.94 0 0017 37.875v3.293c-1.438.34-4.637 1.172-7.875 2.469-2.172.87-4.367 1.949-6.082 3.289C1.324 48.266 0 49.949 0 52v5h48v-5c0-1.105-.395-2.102-1.02-3H64v-3.8c0-1.759-1.09-3.223-2.484-4.427-1.395-1.203-3.168-2.203-4.926-3.035A45.675 45.675 0 0050 35.25v-1.234c2.219-1.524 3.691-4.035 3.89-6.903h.137c1.102 0 2.051-.886 2.051-2.008 0 .18 0 .051.031-.074l.141-.472c.09-.301.18-.625.219-1.012H57V20h2v-3c0-1.48-.824-2.82-2.105-3.512A11.983 11.983 0 0048 3.387V3c0-1.102-.898-2-2-2h-2c-1.102 0-2 .898-2 2v.39c-1.676.43-3.2 1.215-4.5 2.258.406.532.79 1.082 1.129 1.657a10.025 10.025 0 013.477-1.86A.998.998 0 0044 5.023V3h2v2.023c.016.543.457.977 1 .977.379 0 .727-.219.895-.559a9.977 9.977 0 016.89 7.582A1.003 1.003 0 0054 14c0 .55.45 1 1 1a.821.821 0 00.219-.027l.418.144A1.992 1.992 0 0157 17v1H43v2h9v3.89l1.336-.706a.236.236 0 01.074-.028c.086-.015.219-.031.352-.043l.355-.031c.051 0 .09-.004.117-.004h.004c.176 0 .262.102.262.207 0-.043-.066.363-.168.707-.05.172-.105.348-.148.52-.047.168-.106.273-.106.593 0-.003.012.008-.05.008H52V26.5c0 3.504-2.441 6.367-5.75 6.957l-.281.05-.215.196A1.114 1.114 0 0145 34c-.29 0-.543-.11-.754-.297l-.215-.195-.281-.051c-.574-.102-1.176-.203-1.75-.3V33h-2v3.95l.105.21S41.61 40 45 40c3.156 0 4.617-2.375 4.813-2.715.91.27 3.199.98 5.921 2.262 1.66.785 3.309 1.734 4.477 2.742C61.379 43.297 62 44.297 62 45.2V47H45.047a2.558 2.558 0 00-.09-.074c-1.715-1.34-3.91-2.418-6.082-3.29-3.238-1.296-6.438-2.128-7.875-2.468v-3.293A10.94 10.94 0 0034.906 30h.27c1.238 0 2.304-.996 2.304-2.25 0 .16.004.004.047-.152.04-.157.106-.367.172-.598.13-.441.29-.887.297-1.453H38V22h2v-3c0-1.453-.887-2.598-2.05-3.293C37.804 9.172 33.163 3.847 27 2.473V2c0-1.094-.906-2-2-2h-2zm0 2h2v2.027c.016.54.457.973 1 .973a.997.997 0 00.926-.625c4.902 1.227 8.601 5.45 9.027 10.625A1.003 1.003 0 0035 16c0 .55.45 1 1 1a.85.85 0 00.223-.027l.43.148A1.98 1.98 0 0138 19v1H10v-1a1.98 1.98 0 011.348-1.875l.425-.152A1.002 1.002 0 0013 16c0-.535-.422-.973-.953-1 .426-5.176 4.125-9.395 9.027-10.625A.998.998 0 0023 4.027V2zm-1 5c-.55 0-1 .45-1 1s.45 1 1 1 1-.45 1-1-.45-1-1-1zm4 0c-.55 0-1 .45-1 1s.45 1 1 1 1-.45 1-1-.45-1-1-1zm17 1c-.55 0-1 .45-1 1s.45 1 1 1 1-.45 1-1-.45-1-1-1zm4 0c-.55 0-1 .45-1 1s.45 1 1 1 1-.45 1-1-.45-1-1-1zm-25 3c-.55 0-1 .45-1 1s.45 1 1 1 1-.45 1-1-.45-1-1-1zm4 0c-.55 0-1 .45-1 1s.45 1 1 1 1-.45 1-1-.45-1-1-1zm25 2c-.55 0-1 .45-1 1s.45 1 1 1 1-.45 1-1-.45-1-1-1zm-35 2c-.55 0-1 .45-1 1s.45 1 1 1 1-.45 1-1-.45-1-1-1zm16 0c-.55 0-1 .45-1 1s.45 1 1 1 1-.45 1-1-.45-1-1-1zm22 5h1v1.219a2.176 2.176 0 00-.762-.14h-.117a3.26 3.26 0 01-.121.01V20zm-42 2h1v1.031c-.047-.004-.102-.011-.14-.015a5.36 5.36 0 01-.165-.012c-.043 0-.02-.004-.133-.004-.19 0-.378.027-.562.066V22zm3 0h18v3.844l1.344-.703a.513.513 0 01.12-.043c.106-.016.259-.035.411-.051.152-.012.3-.027.418-.035.055-.004.102-.008.133-.012h.011c.344 0 .563.234.563.5 0 .016-.094.508-.219.938-.066.218-.129.433-.187.636-.055.203-.114.34-.114.676 0 .125-.101.25-.304.25H33v1.473c0 4.437-3.2 8.101-7.41 8.851l-.285.051-.211.195c-.301.27-.672.43-1.094.43-.422 0-.793-.16-1.094-.43l-.21-.195-.286-.05A8.984 8.984 0 0115 29.472V28h-2.176c-.203 0-.304-.125-.304-.25 0-.336-.06-.473-.114-.676a46.247 46.247 0 00-.187-.637A9.93 9.93 0 0112 25.5c0-.266.219-.5.563-.5h.007c.032.004.082.008.137.012.117.008.266.023.418.035.152.015.305.035.41.05.055.012.117.04.133.044l1.332.703V22zm20 0h1v1.066a2.698 2.698 0 00-.563-.066c-.113 0-.09.004-.132.004a5.36 5.36 0 01-.164.012L35 23.03V22zm13.5 0a1.5 1.5 0 100 3 1.5 1.5 0 000-3zm-29 3a1.5 1.5 0 100 3 1.5 1.5 0 000-3zm9 0a1.5 1.5 0 100 3 1.5 1.5 0 000-3zM48 35.04v1.362c-.117.23-.855 1.598-3 1.598s-2.883-1.367-3-1.598v-1.215c.477.079.73.122 1.172.2.512.37 1.14.613 1.828.613.7 0 1.336-.246 1.852-.629A9.25 9.25 0 0048 35.04zM19 39.2c.871.448 1.805.792 2.797.995.61.477 1.36.805 2.203.805.844 0 1.594-.328 2.203-.805A10.834 10.834 0 0029 39.2v3.457c-.121.242-1.422 2.746-5 2.746-3.578 0-4.879-2.504-5-2.746V39.2zM45 43c-.55 0-1 .45-1 1s.45 1 1 1 1-.45 1-1-.45-1-1-1zm4 0c-.55 0-1 .45-1 1s.45 1 1 1 1-.45 1-1-.45-1-1-1zm4 0c-.55 0-1 .45-1 1s.45 1 1 1 1-.45 1-1-.45-1-1-1zm4 0c-.55 0-1 .45-1 1s.45 1 1 1 1-.45 1-1-.45-1-1-1zm-39.988.227l.093.191S19.18 47.402 24 47.402c4.82 0 6.895-3.984 6.895-3.984l.093-.191c1.52.375 4.29 1.12 7.137 2.265 2.078.832 4.133 1.864 5.605 3.008C45.2 49.648 46 50.828 46 52v3H2v-3c0-1.172.8-2.352 2.27-3.5 1.472-1.145 3.527-2.176 5.605-3.008 2.848-1.144 5.617-1.89 7.137-2.265zM6 51c-.55 0-1 .45-1 1s.45 1 1 1 1-.45 1-1-.45-1-1-1zm4 0c-.55 0-1 .45-1 1s.45 1 1 1 1-.45 1-1-.45-1-1-1zm4 0c-.55 0-1 .45-1 1s.45 1 1 1 1-.45 1-1-.45-1-1-1zm4 0c-.55 0-1 .45-1 1s.45 1 1 1 1-.45 1-1-.45-1-1-1zm4 0c-.55 0-1 .45-1 1s.45 1 1 1 1-.45 1-1-.45-1-1-1zm4 0c-.55 0-1 .45-1 1s.45 1 1 1 1-.45 1-1-.45-1-1-1zm4 0c-.55 0-1 .45-1 1s.45 1 1 1 1-.45 1-1-.45-1-1-1zm4 0c-.55 0-1 .45-1 1s.45 1 1 1 1-.45 1-1-.45-1-1-1zm4 0c-.55 0-1 .45-1 1s.45 1 1 1 1-.45 1-1-.45-1-1-1zm4 0c-.55 0-1 .45-1 1s.45 1 1 1 1-.45 1-1-.45-1-1-1z" fill="#E4B564"/></svg>
